X:133
U: ~ = !turn!
%%topmargin 3cm
T:Mot Malloy
B:Traditional Irish Fiddle Tunes. Randy Miller and Jack Perron.
S:Sean McGuire
Z:Transcribed by Ralph Palmer
R:Reel
M:C|
L:1/8
K:D
F3E FEDE | FAAB AFEd | cdeg fedc | dBAF BEEG |
F2 (3.F.F.E FEDE | FA (3.A.A.B AFEd | cdeg fedc | dBAG FD D2 ::
(3.d.d.d AG FAFA | dfaf gfeg | ((3faf) df e2 ce | dfed cAAc |
BDGB A2 FA | dfaf gfeg | fedc dBAF | GBAG FD D2 :|]
